icons/svg/tourist/prison_camp.svg

<?xml version="1.0" encoding="UTF-8" standalone="no"?>
<!-- Created with Inkscape (http://www.inkscape.org/) -->

<svg
   xmlns:dc="http://purl.org/dc/elements/1.1/"
   xmlns:cc="http://creativecommons.org/ns#"
   xmlns:rdf="http://www.w3.org/1999/02/22-rdf-syntax-ns#"
   xmlns:svg="http://www.w3.org/2000/svg"
   xmlns="http://www.w3.org/2000/svg"
   xmlns:sodipodi="http://sodipodi.sourceforge.net/DTD/sodipodi-0.dtd"
   xmlns:inkscape="http://www.inkscape.org/namespaces/inkscape"
   version="1.0"
   width="580"
   height="580"
   id="svg2"
   sodipodi:version="0.32"
   inkscape:version="0.91 r"
   sodipodi:docname="prison_camp.svg"
   inkscape:output_extension="org.inkscape.output.svg.inkscape">
  <metadata
     id="metadata2975">
    <rdf:RDF>
      <cc:Work
         rdf:about="">
        <dc:format>image/svg+xml</dc:format>
        <dc:type
           rdf:resource="http://purl.org/dc/dcmitype/StillImage" />
        <cc:license
           rdf:resource="http://web.resource.org/cc/PublicDomain" />
        <dc:language>en</dc:language>
        <dc:title></dc:title>
      </cc:Work>
    </rdf:RDF>
  </metadata>
  <sodipodi:namedview
     inkscape:window-height="739"
     inkscape:window-width="1332"
     inkscape:pageshadow="2"
     inkscape:pageopacity="0.0"
     guidetolerance="10.0"
     gridtolerance="10.0"
     objecttolerance="10.0"
     borderopacity="1.0"
     bordercolor="#666666"
     pagecolor="#ffffff"
     id="base"
     inkscape:zoom="0.46083856"
     inkscape:cx="389.1882"
     inkscape:cy="163.26951"
     inkscape:window-x="34"
     inkscape:window-y="1024"
     inkscape:current-layer="svg2"
     showgrid="false"
     inkscape:window-maximized="1" />
  <defs
     id="defs4">
    <inkscape:perspective
       sodipodi:type="inkscape:persp3d"
       inkscape:vp_x="0 : 290 : 1"
       inkscape:vp_y="0 : 1000 : 0"
       inkscape:vp_z="580 : 290 : 1"
       inkscape:persp3d-origin="290 : 193.33333 : 1"
       id="perspective2441" />
    <inkscape:perspective
       id="perspective2466"
       inkscape:persp3d-origin="372.04724 : 350.78739 : 1"
       inkscape:vp_z="744.09448 : 526.18109 : 1"
       inkscape:vp_y="0 : 1000 : 0"
       inkscape:vp_x="0 : 526.18109 : 1"
       sodipodi:type="inkscape:persp3d" />
    <inkscape:perspective
       id="perspective3333"
       inkscape:persp3d-origin="372.04724 : 350.78739 : 1"
       inkscape:vp_z="744.09448 : 526.18109 : 1"
       inkscape:vp_y="0 : 1000 : 0"
       inkscape:vp_x="0 : 526.18109 : 1"
       sodipodi:type="inkscape:persp3d" />
    <inkscape:perspective
       id="perspective3401"
       inkscape:persp3d-origin="372.04724 : 350.78739 : 1"
       inkscape:vp_z="744.09448 : 526.18109 : 1"
       inkscape:vp_y="0 : 1000 : 0"
       inkscape:vp_x="0 : 526.18109 : 1"
       sodipodi:type="inkscape:persp3d" />
    <inkscape:perspective
       id="perspective3464"
       inkscape:persp3d-origin="372.04724 : 350.78739 : 1"
       inkscape:vp_z="744.09448 : 526.18109 : 1"
       inkscape:vp_y="0 : 1000 : 0"
       inkscape:vp_x="0 : 526.18109 : 1"
       sodipodi:type="inkscape:persp3d" />
    <inkscape:perspective
       id="perspective3581"
       inkscape:persp3d-origin="225 : 150 : 1"
       inkscape:vp_z="450 : 225 : 1"
       inkscape:vp_y="0 : 1000 : 0"
       inkscape:vp_x="0 : 225 : 1"
       sodipodi:type="inkscape:persp3d" />
    <inkscape:perspective
       id="perspective4312"
       inkscape:persp3d-origin="225 : 150 : 1"
       inkscape:vp_z="450 : 225 : 1"
       inkscape:vp_y="0 : 1000 : 0"
       inkscape:vp_x="0 : 225 : 1"
       sodipodi:type="inkscape:persp3d" />
  </defs>
  <g
     id="g1327">
    <path
       d="M 66.275,1.768 C 24.94,1.768 1.704,23.139 1.704,66.804 L 1.704,516.927 C 1.704,557.771 22.599,579.156 63.896,579.156 L 515.92,579.156 C 557.227,579.156 578.149,558.841 578.149,516.927 L 578.149,66.804 C 578.149,24.203 557.227,1.768 514.628,1.768 C 514.624,1.768 66.133,1.625 66.275,1.768 z "
       style="fill:#111;stroke:#eee;stroke-width:3.40799999"
       id="path1329" />
  </g>
  <polygon
     transform="matrix(22.872971,22.872971,-22.872971,22.872971,38.409632,-526.54839)"
     points="18.7,13.9 19.5,15.4 20.7,16.5 19.2,16.4 18.4,17.9 18.1,16.2 17.1,14.8 18.6,15.4 "
     id="polygon19"
     style="fill:#ffffff;fill-opacity:1;stroke:none" />
  <path
     style="fill:none;fill-rule:evenodd;stroke:#ffffff;stroke-width:35;stroke-linecap:round;stroke-linejoin:miter;stroke-miterlimit:4;stroke-dasharray:none;stroke-opacity:1"
     d="m 50.975698,249.40073 c 0,0 160.722912,48.00496 312.726602,50.45725"
     id="path4149"
     inkscape:connector-curvature="0"
     sodipodi:nodetypes="cc" />
  <path
     style="fill:#ffffff"
     inkscape:connector-curvature="0"
     id="path2285"
     d="m 396.59036,208.53777 0,-101.47422 63.91348,-35.584871 63.91349,35.584871 0,101.47422 z m 23.99629,-90.67242 0,53.20265 79.8344,0 0,-53.20265 z"
     sodipodi:nodetypes="ccccccccccc" />
  <polygon
     transform="matrix(-28.013554,16.173633,16.173633,28.013554,550.01388,-456.11137)"
     points="18.7,13.9 19.5,15.4 20.7,16.5 19.2,16.4 18.4,17.9 18.1,16.2 17.1,14.8 18.6,15.4 "
     id="polygon19-9"
     style="fill:#ffffff;fill-opacity:1;stroke:none" />
  <path
     style="fill:#ffffff;fill-opacity:1;stroke:none"
     d="m 81.17386,435.78876 -1.280403,-59.35842 26.546883,36.95034 58.37867,-11.38291 -31.51811,35.59948 3.6939,55.52962 -31.06019,-42.02651 -28.270532,39.56663 z"
     id="polygon19-6"
     inkscape:connector-curvature="0"
     sodipodi:nodetypes="ccccccccc" />
  <polygon
     transform="matrix(31.24506,-8.3720885,-8.3720885,-31.24506,-182.3543,1102.537)"
     points="19.2,16.4 18.4,17.9 18.1,16.2 17.1,14.8 18.6,15.4 18.7,13.9 19.5,15.4 20.7,16.5 "
     id="polygon19-9-8"
     style="fill:#ffffff;fill-opacity:1;stroke:none" />
  <path
     style="fill:none;fill-rule:evenodd;stroke:#ffffff;stroke-width:35;stroke-linecap:round;stroke-linejoin:miter;stroke-miterlimit:4;stroke-dasharray:none;stroke-opacity:1"
     d="m 55.200749,424.46165 c 0,0 164.876671,28.98863 293.010831,23.84607"
     id="path4149-8"
     inkscape:connector-curvature="0"
     sodipodi:nodetypes="cc" />
  <path
     style="fill:none;fill-rule:evenodd;stroke:#ffffff;stroke-width:30;stroke-linecap:round;stroke-linejoin:miter;stroke-miterlimit:4;stroke-dasharray:none;stroke-opacity:1"
     d="M 438.33138,192.66262 404.69704,526.83605"
     id="path4206"
     inkscape:connector-curvature="0"
     sodipodi:nodetypes="cc" />
  <path
     style="fill:none;fill-rule:evenodd;stroke:#ffffff;stroke-width:30;stroke-linecap:round;stroke-linejoin:miter;stroke-miterlimit:4;stroke-dasharray:none;stroke-opacity:1"
     d="M 484.98546,192.66262 518.6198,526.83605"
     id="path4206-4"
     inkscape:connector-curvature="0"
     sodipodi:nodetypes="cc" />
  <path
     style="fill:none;fill-rule:evenodd;stroke:#ffffff;stroke-width:24;stroke-linecap:round;stroke-linejoin:round;stroke-miterlimit:4;stroke-dasharray:none;stroke-opacity:1"
     d="M 413.41387,466.72378 498.97259,314.84612"
     id="path4240"
     inkscape:connector-curvature="0"
     sodipodi:nodetypes="cc" />
  <path
     style="fill:none;fill-rule:evenodd;stroke:#ffffff;stroke-width:24;stroke-linecap:round;stroke-linejoin:round;stroke-miterlimit:4;stroke-dasharray:none;stroke-opacity:1"
     d="M 508.63183,466.72378 425.3747,314.84612"
     id="path4240-2"
     inkscape:connector-curvature="0"
     sodipodi:nodetypes="cc" />
  <path
     style="color:#000000;clip-rule:nonzero;display:inline;overflow:visible;visibility:visible;opacity:1;isolation:auto;mix-blend-mode:normal;color-interpolation:sRGB;color-interpolation-filters:linearRGB;solid-color:#000000;solid-opacity:1;fill:none;fill-opacity:1;fill-rule:evenodd;stroke:#ffffff;stroke-width:16;stroke-linecap:round;stroke-linejoin:round;stroke-miterlimit:4;stroke-dasharray:none;stroke-dashoffset:0;stroke-opacity:1;color-rendering:auto;image-rendering:auto;shape-rendering:auto;text-rendering:auto;enable-background:accumulate"
     d="m 423.68417,319.60512 58.04635,-84.08585"
     id="path4257"
     inkscape:connector-curvature="0"
     sodipodi:nodetypes="cc" />
  <path
     style="color:#000000;clip-rule:nonzero;display:inline;overflow:visible;visibility:visible;opacity:1;isolation:auto;mix-blend-mode:normal;color-interpolation:sRGB;color-interpolation-filters:linearRGB;solid-color:#000000;solid-opacity:1;fill:none;fill-opacity:1;fill-rule:evenodd;stroke:#ffffff;stroke-width:16;stroke-linecap:round;stroke-linejoin:round;stroke-miterlimit:4;stroke-dasharray:none;stroke-dashoffset:0;stroke-opacity:1;color-rendering:auto;image-rendering:auto;shape-rendering:auto;text-rendering:auto;enable-background:accumulate"
     d="M 499.09018,319.60512 443.21379,236.06176"
     id="path4257-8"
     inkscape:connector-curvature="0"
     sodipodi:nodetypes="cc" />
</svg>

<svg width="580" height="580" viewBox="0 0 580 580" fill="none" xmlns="http://www.w3.org/2000/svg">
<g clip-path="url(#clip0)">
<path d="M66.2751 1.76815C24.9401 1.76815 1.7041 23.1391 1.7041 66.8041V516.927C1.7041 557.771 22.5991 579.156 63.8961 579.156H515.92C557.227 579.156 578.149 558.841 578.149 516.927V66.8041C578.149 24.2031 557.227 1.76815 514.628 1.76815C514.624 1.76815 66.1331 1.62515 66.2751 1.76815Z" fill="#111111" stroke="#EEEEEE" stroke-width="3.408"/>
<path d="M148.2 219.11L132.189 271.718L134.476 324.326L102.454 287.729L49.8465 303.74L81.8686 257.995L91.0178 203.099L111.604 251.133L148.2 219.11Z" fill="white"/>
<path d="M50.9756 249.401C50.9756 249.401 211.698 297.406 363.702 299.858" stroke="white" stroke-width="35" stroke-linecap="round"/>
<path d="M396.591 208.538V107.063L460.504 71.4785L524.418 107.063V208.538H396.591ZM420.587 117.865V171.068H500.422V117.865H420.587Z" fill="white"/>
<path d="M250.974 235.724L252.824 290.683L236.999 340.907L277.402 313.845L324.073 342.926L304.982 290.451L310.352 235.058L278.036 276.127L250.974 235.724Z" fill="white"/>
<path d="M81.1738 435.789L79.8934 376.43L106.44 413.381L164.819 401.998L133.301 437.597L136.995 493.127L105.935 451.1L77.6641 490.667L81.1738 435.789Z" fill="white"/>
<path d="M280.249 429.374L242.695 389.204L247.554 444.832L228.03 496.947L269.874 465.642L285.557 511.673L297.994 458.107L326.279 413.691L280.249 429.374Z" fill="white"/>
<path d="M55.2012 424.461C55.2012 424.461 220.078 453.45 348.212 448.307" stroke="white" stroke-width="35" stroke-linecap="round"/>
<path d="M438.332 192.663L404.697 526.836" stroke="white" stroke-width="30" stroke-linecap="round"/>
<path d="M484.985 192.663L518.62 526.836" stroke="white" stroke-width="30" stroke-linecap="round"/>
<path d="M413.414 466.724L498.973 314.846" stroke="white" stroke-width="24" stroke-linecap="round" stroke-linejoin="round"/>
<path d="M508.632 466.724L425.375 314.846" stroke="white" stroke-width="24" stroke-linecap="round" stroke-linejoin="round"/>
<path d="M423.685 319.605L481.731 235.519" stroke="white" stroke-width="16" stroke-linecap="round" stroke-linejoin="round"/>
<path d="M499.09 319.605L443.214 236.062" stroke="white" stroke-width="16" stroke-linecap="round" stroke-linejoin="round"/>
</g>
<defs>
<clipPath id="clip0">
<path d="M0 0H580V580H0V0Z" fill="white"/>
</clipPath>
</defs>
</svg>
